X:3
T: Azért szerettem
O: Bogdánfalva (Bákó), 1929
Q: Guisto 1/4=138
M:2/4
L:1/4
K:F
F/E/D | F/(GA//F//) | 
F/G/ A | G/FF/ | 
A/A/d | c/B/A | 
G/G/F | D/DD/ | 

